images/knownorigin.svg

<svg height="250" viewBox="0 0 250 250" width="250" xmlns="http://www.w3.org/2000/svg"><path d="m250 229.304688c0 11.429687-9.265625 20.695312-20.695312 20.695312h-208.609376c-11.429687 0-20.695312-9.265625-20.695312-20.695312v-208.609376c0-11.429687 9.265625-20.695312 20.695312-20.695312h208.609376c11.429687 0 20.695312 9.265625 20.695312 20.695312zm0 0" fill="#132cc4"/><g fill="#fff"><path d="m66.800781 60.722656h5.183594v12.582032h.121094l12.171875-12.582032h6.988281l-13.609375 13.445313 14.515625 15.664062h-7.28125l-12.785156-14.59375h-.121094v14.59375h-5.183594zm0 0"/><path d="m158.300781 176.519531c0-2.328125.386719-4.433593 1.167969-6.316406.78125-1.875 1.863281-3.46875 3.25-4.785156 1.382812-1.316407 3.027344-2.332031 4.933594-3.046875 1.90625-.707032 3.984375-1.066406 6.230468-1.066406 2.273438 0 4.367188.359374 6.289063 1.066406 1.917969.714844 3.574219 1.730468 4.976563 3.046875 1.398437 1.316406 2.488281 2.914062 3.265624 4.785156.78125 1.882813 1.171876 3.984375 1.171876 6.316406 0 2.273438-.390626 4.351563-1.171876 6.226563-.777343 1.878906-1.867187 3.496094-3.265624 4.851562-1.398438 1.355469-3.054688 2.414063-4.976563 3.164063-1.917969.753906-4.015625 1.128906-6.289063 1.128906-2.25 0-4.328124-.375-6.230468-1.128906-1.90625-.75-3.550782-1.808594-4.933594-3.164063-1.386719-1.355468-2.46875-2.976562-3.25-4.851562s-1.167969-3.953125-1.167969-6.226563zm5.628907 0c0 1.5625.238281 2.992188.71875 4.292969.480468 1.300781 1.164062 2.433594 2.054687 3.394531.890625.957031 1.945313 1.707031 3.167969 2.238281 1.214844.535157 2.570312.804688 4.046875.804688 1.480469 0 2.839843-.265625 4.070312-.804688 1.234375-.53125 2.292969-1.28125 3.1875-2.238281.890625-.960937 1.578125-2.089843 2.054688-3.394531.480469-1.300781.71875-2.734375.71875-4.292969 0-1.507812-.238281-2.90625-.71875-4.195312-.476563-1.289063-1.15625-2.410157-2.035157-3.371094-.878906-.960937-1.929687-1.710937-3.164062-2.257813-1.234375-.550781-2.605469-.824218-4.113281-.824218-1.507813 0-2.871094.273437-4.089844.824218-1.222656.546876-2.265625 1.296876-3.144531 2.257813s-1.558594 2.082031-2.035156 3.371094c-.476563 1.289062-.71875 2.6875-.71875 4.195312zm0 0"/><path d="m114.324219 154.851562h-28.511719v-4.164062h24.351562v-25.695312h23.859376v-24.964844h28.148437v4.164062h-23.984375v24.964844h-23.863281zm0 0"/></g></svg>

<!-- Generator: Adobe Illustrator 16.0.0, SVG Export Plug-In . SVG Version: 6.00 Build 0)  -->
<svg xmlns="http://www.w3.org/2000/svg" xmlns:xlink="http://www.w3.org/1999/xlink" width="250px" height="250px" viewBox="0 0 250 250" version="1.1">
<g id="surface1">
<path style=" stroke:none;fill-rule:nonzero;fill:rgb(7.450981%,17.254902%,76.862746%);fill-opacity:1;" d="M 250 229.304688 C 250 240.734375 240.734375 250 229.304688 250 L 20.695312 250 C 9.265625 250 0 240.734375 0 229.304688 L 0 20.695312 C 0 9.265625 9.265625 0 20.695312 0 L 229.304688 0 C 240.734375 0 250 9.265625 250 20.695312 Z M 250 229.304688 "/>
<path style=" stroke:none;fill-rule:nonzero;fill:rgb(100%,100%,100%);fill-opacity:1;" d="M 66.800781 60.722656 L 71.984375 60.722656 L 71.984375 73.304688 L 72.105469 73.304688 L 84.277344 60.722656 L 91.265625 60.722656 L 77.65625 74.167969 L 92.171875 89.832031 L 84.890625 89.832031 L 72.105469 75.238281 L 71.984375 75.238281 L 71.984375 89.832031 L 66.800781 89.832031 Z M 66.800781 60.722656 "/>
<path style=" stroke:none;fill-rule:nonzero;fill:rgb(100%,100%,100%);fill-opacity:1;" d="M 158.300781 176.519531 C 158.300781 174.191406 158.6875 172.085938 159.46875 170.203125 C 160.25 168.328125 161.332031 166.734375 162.71875 165.417969 C 164.101562 164.101562 165.746094 163.085938 167.652344 162.371094 C 169.558594 161.664062 171.636719 161.304688 173.882812 161.304688 C 176.15625 161.304688 178.25 161.664062 180.171875 162.371094 C 182.089844 163.085938 183.746094 164.101562 185.148438 165.417969 C 186.546875 166.734375 187.636719 168.332031 188.414062 170.203125 C 189.195312 172.085938 189.585938 174.1875 189.585938 176.519531 C 189.585938 178.792969 189.195312 180.871094 188.414062 182.746094 C 187.636719 184.625 186.546875 186.242188 185.148438 187.597656 C 183.75 188.953125 182.09375 190.011719 180.171875 190.761719 C 178.253906 191.515625 176.15625 191.890625 173.882812 191.890625 C 171.632812 191.890625 169.554688 191.515625 167.652344 190.761719 C 165.746094 190.011719 164.101562 188.953125 162.71875 187.597656 C 161.332031 186.242188 160.25 184.621094 159.46875 182.746094 C 158.6875 180.871094 158.300781 178.792969 158.300781 176.519531 Z M 163.929688 176.519531 C 163.929688 178.082031 164.167969 179.511719 164.648438 180.8125 C 165.128906 182.113281 165.8125 183.246094 166.703125 184.207031 C 167.59375 185.164062 168.648438 185.914062 169.871094 186.445312 C 171.085938 186.980469 172.441406 187.25 173.917969 187.25 C 175.398438 187.25 176.757812 186.984375 177.988281 186.445312 C 179.222656 185.914062 180.28125 185.164062 181.175781 184.207031 C 182.066406 183.246094 182.753906 182.117188 183.230469 180.8125 C 183.710938 179.511719 183.949219 178.078125 183.949219 176.519531 C 183.949219 175.011719 183.710938 173.613281 183.230469 172.324219 C 182.753906 171.035156 182.074219 169.914062 181.195312 168.953125 C 180.316406 167.992188 179.265625 167.242188 178.03125 166.695312 C 176.796875 166.144531 175.425781 165.871094 173.917969 165.871094 C 172.410156 165.871094 171.046875 166.144531 169.828125 166.695312 C 168.605469 167.242188 167.5625 167.992188 166.683594 168.953125 C 165.804688 169.914062 165.125 171.035156 164.648438 172.324219 C 164.171875 173.613281 163.929688 175.011719 163.929688 176.519531 Z M 163.929688 176.519531 "/>
<path style=" stroke:none;fill-rule:nonzero;fill:rgb(100%,100%,100%);fill-opacity:1;" d="M 114.324219 154.851562 L 85.8125 154.851562 L 85.8125 150.6875 L 110.164062 150.6875 L 110.164062 124.992188 L 134.023438 124.992188 L 134.023438 100.027344 L 162.171875 100.027344 L 162.171875 104.191406 L 138.1875 104.191406 L 138.1875 129.15625 L 114.324219 129.15625 Z M 114.324219 154.851562 "/>
</g>
</svg>
